X: 1
T:Flatbush Waltz
C:Andy Statman
D:Flatbush Waltz; Rounder 00116 (1980)
L:1/8
M:3/4
R:Waltz
S:Handwritten copy
K:Em
[| "Em"B3 e BA | G2 E2 E2 | B3 e BG | "Am"A3 c BA \
| "Em"EF GA BG/B/ | "Am"AE A2 A2 | "Em"G3 A "F"=FG  | "Em"E2 E, G,B, EG ||
|| "Em"B3 e BA | G2 E2 E2 | B3 e BG | "Am"A3 d (3cBA \
| "Em"GA Bc dB | "Am"AE A2 A2 | "Em"G3 A "F"=FG  | "Em"E6 ||
|| "Em"[g4B] [fA][eG] | "B7"[fA]B, [B^D]F B^d | "C"[e2G] [d3F] [cE] | "G"[B6D] \
| "Am"[c2E] [B2D] [A2C] | "Em"[B2D] [e2G] [f2A] | [g3B] [fA] [gB][ac] | "B7"[f6A] ||
|| "Em"[g4B] [fA][eG] | "B7"[fA]B, [B^D]F B^d | "C"[e2G] [d3F] [cE] | "G"[B6D] \
| "Am"[c2E] [B2D] [A2C] | "Em"[B2D] [E2G,] [A2C] |  "Em"[G3B,] [AC] "F"[=FA,][GB,]  | "Em"[E6G,] |]
